svgs/light/garage-car.svg

<svg xmlns="http://www.w3.org/2000/svg" viewBox="0 0 640 512"><!--! Font Awesome Pro 6.4.0 by @fontawesome - https://fontawesome.com License - https://fontawesome.com/license (Commercial License) Copyright 2023 Fonticons, Inc. --><path d="M326.2 36c-4-1.7-8.4-1.7-12.4 0L51.6 146.4C39.7 151.4 32 163 32 175.9V496c0 8.8-7.2 16-16 16s-16-7.2-16-16V175.9c0-25.8 15.4-49 39.2-59L301.4 6.5c11.9-5 25.3-5 37.3 0L600.8 116.9c23.7 10 39.2 33.2 39.2 59V496c0 8.8-7.2 16-16 16s-16-7.2-16-16V175.9c0-12.9-7.7-24.5-19.6-29.5L326.2 36zM96 224c0-17.7 14.3-32 32-32H512c17.7 0 32 14.3 32 32V496c0 8.8-7.2 16-16 16s-16-7.2-16-16V224H128V496c0 8.8-7.2 16-16 16s-16-7.2-16-16V224zm156.9 75.1L238.4 344H401.6l-14.6-44.9c-2.1-6.6-8.3-11.1-15.2-11.1H268.2c-6.9 0-13.1 4.5-15.2 11.1zm164.6-9.9l20.6 63.6c15.6 9.9 25.9 27.4 25.9 47.2v96c0 8.8-7.2 16-16 16s-16-7.2-16-16V480H208v16c0 8.8-7.2 16-16 16s-16-7.2-16-16V400c0-19.8 10.3-37.3 25.9-47.2l20.6-63.6c6.4-19.8 24.9-33.2 45.7-33.2H371.8c20.8 0 39.2 13.4 45.7 33.2zM208 448H432V400c0-13.3-10.7-24-24-24H232c-13.3 0-24 10.7-24 24v48zm24-32a16 16 0 1 1 32 0 16 16 0 1 1 -32 0zm160-16a16 16 0 1 1 0 32 16 16 0 1 1 0-32z"/></svg>

<svg xmlns="http://www.w3.org/2000/svg" viewBox="0 0 640 512"><!--! Font Awesome Pro 6.3.0 by @fontawesome - https://fontawesome.com License - https://fontawesome.com/license (Commercial License) Copyright 2023 Fonticons, Inc. --><path d="M326.2 35.98C322.2 34.3 317.8 34.3 313.8 35.98L51.58 146.4C39.72 151.4 32 162.1 32 175.9V496C32 504.8 24.84 512 16 512C7.164 512 0 504.8 0 496V175.9C0 150.1 15.43 126.9 39.16 116.9L301.4 6.484C313.3 1.469 326.7 1.469 338.6 6.484L600.8 116.9C624.6 126.9 640 150.1 640 175.9V496C640 504.8 632.8 512 624 512C615.2 512 608 504.8 608 496V175.9C608 162.1 600.3 151.4 588.4 146.4L326.2 35.98zM96 224C96 206.3 110.3 192 128 192H512C529.7 192 544 206.3 544 224V496C544 504.8 536.8 512 528 512C519.2 512 512 504.8 512 496V224H128V496C128 504.8 120.8 512 112 512C103.2 512 96 504.8 96 496V224zM264 416C264 424.8 256.8 432 248 432C239.2 432 232 424.8 232 416C232 407.2 239.2 400 248 400C256.8 400 264 407.2 264 416zM376 416C376 407.2 383.2 400 392 400C400.8 400 408 407.2 408 416C408 424.8 400.8 432 392 432C383.2 432 376 424.8 376 416zM417.5 289.2L438.1 352.8C453.7 362.7 464 380.2 464 400V496C464 504.8 456.8 512 448 512C439.2 512 432 504.8 432 496V480H208V496C208 504.8 200.8 512 192 512C183.2 512 176 504.8 176 496V400C176 380.2 186.3 362.7 201.9 352.8L222.5 289.2C228.9 269.4 247.3 255.1 268.2 255.1H371.8C392.6 255.1 411.1 269.4 417.5 289.2L417.5 289.2zM238.4 344H401.6L387.1 299.1C384.9 292.5 378.8 287.1 371.8 287.1H268.2C261.2 287.1 255.1 292.5 252.9 299.1L238.4 344zM208 448H432V400C432 386.7 421.3 376 408 376H232C218.7 376 208 386.7 208 400V448z"/></svg>
